X:74
T:Flowers of Red Hill
M:C
L:1/8
K:A Dorian
eAA2 gAfA|eAA2 eAd2|eAA2 e2af|gedB GABd:|!
eaa2 baa2|eaag egdg|eaa2 baa2|edef gedg|!
eaa2 baa2|eaaf g3a|b3g aged|eaag edBd|]!
